sprites/streets-v8/_svg/college-11.svg

<?xml version="1.0" encoding="UTF-8" standalone="no"?>
<svg
   xmlns:dc="http://purl.org/dc/elements/1.1/"
   xmlns:cc="http://creativecommons.org/ns#"
   xmlns:rdf="http://www.w3.org/1999/02/22-rdf-syntax-ns#"
   xmlns:svg="http://www.w3.org/2000/svg"
   xmlns="http://www.w3.org/2000/svg"
   id="svg2"
   width="19"
   height="19"
   viewBox="0 0 19 19"
   version="1.1">
  <metadata
     id="metadata14">
    <rdf:RDF>
      <cc:Work
         rdf:about="">
        <dc:format>image/svg+xml</dc:format>
        <dc:type
           rdf:resource="http://purl.org/dc/dcmitype/StillImage" />
      </cc:Work>
    </rdf:RDF>
  </metadata>
  <defs
     id="defs12" />
  <ellipse
     id="ellipse4"
     ry="9.5"
     rx="9.5"
     cy="9.5"
     cx="9.5"
     style="fill:#ffffff;stroke:none;" />
  <ellipse
     id="ellipse6"
     rx="8.5"
     ry="8.5"
     cy="9.5"
     cx="9.5"
     style="fill:#b5a462;stroke:none;" />
  <g
     id="g8"
     transform="translate(4,4)">
      <defs     id="defs4766" />  <metadata     id="metadata4769">    <rdf:RDF>      <cc:Work         rdf:about="">        <dc:format>image/svg+xml</dc:format>        <dc:type           rdf:resource="http://purl.org/dc/dcmitype/StillImage" />        <dc:title />      </cc:Work>    </rdf:RDF>  </metadata>  <path     id="path5831"     d="M 5.5 1 L 0 3.5 L 1.1523438 4.0234375 L 1.1523438 5.5761719 C 0.79131975 5.7277214 0.55649462 6.0811141 0.55664062 6.4726562 C 0.55759062 6.8060494 0.72936575 7.1156868 1.0117188 7.2929688 L 0.5 9 C 0.200229 10 1 10 1 10 L 2 10 C 2 10 2.801513 10 2.5 9 L 1.9941406 7.3222656 C 2.3049936 7.1524133 2.498814 6.8268847 2.5 6.4726562 C 2.500605 6.0799306 2.2647898 5.7254369 1.9023438 5.5742188 L 1.9023438 4.3652344 L 5.5 6 L 11 3.5 L 5.5 1 z M 9 5.5078125 L 5.5 7.0976562 L 3.4628906 6.171875 C 3.4823706 6.270158 3.50016 6.3697984 3.5 6.4746094 L 3.5 6.4765625 C 3.498603 6.8931958 3.3369655 7.2675443 3.1015625 7.5957031 C 3.2785065 8.0105636 3.5 8.3814116 3.5 9 L 3.5 9.6074219 C 4.01774 9.8287042 4.669117 10 5.5 10 C 8 10 9 8.5 9 8.5 L 9 5.5078125 z "     style="fill:#ffffff;fill-opacity:1;fill-rule:evenodd;stroke:none;stroke-width:1px;stroke-linecap:butt;stroke-linejoin:miter;stroke-opacity:1" />
  </g>
</svg>

<?xml version="1.0" encoding="utf-8"?>
<!-- Generator: Adobe Illustrator 17.1.0, SVG Export Plug-In . SVG Version: 6.00 Build 0)  -->
<!DOCTYPE svg PUBLIC "-//W3C//DTD SVG 1.1//EN" "http://www.w3.org/Graphics/SVG/1.1/DTD/svg11.dtd">
<svg version="1.1"
	 id="svg2" xmlns:svg="http://www.w3.org/2000/svg" xmlns:cc="http://creativecommons.org/ns#" xmlns:dc="http://purl.org/dc/elements/1.1/" xmlns:rdf="http://www.w3.org/1999/02/22-rdf-syntax-ns#"
	 xmlns="http://www.w3.org/2000/svg" xmlns:xlink="http://www.w3.org/1999/xlink" x="0px" y="0px" width="19px" height="19px"
	 viewBox="0 0 19 19" enable-background="new 0 0 19 19" xml:space="preserve">
<ellipse id="ellipse4" fill="#FFFFFF" cx="9.5" cy="9.5" rx="9.5" ry="9.5"/>
<ellipse id="ellipse6" fill="#B5A462" cx="9.5" cy="9.5" rx="8.5" ry="8.5"/>
<g id="g8" transform="translate(4,4)">
	<path id="path5831" fill="#FFFFFF" d="M5.5,1L0,3.5L1.2,4v1.6C0.8,5.7,0.6,6.1,0.6,6.5c0,0.3,0.2,0.6,0.5,0.8L0.5,9
		C0.2,10,1,10,1,10h1c0,0,0.8,0,0.5-1L2,7.3c0.3-0.2,0.5-0.5,0.5-0.8c0-0.4-0.2-0.7-0.6-0.9V4.4L5.5,6L11,3.5L5.5,1z M9,5.5L5.5,7.1
		l-2-0.9c0,0.1,0,0.2,0,0.3l0,0c0,0.4-0.2,0.8-0.4,1.1C3.3,8,3.5,8.4,3.5,9v0.6C4,9.8,4.7,10,5.5,10C8,10,9,8.5,9,8.5V5.5z"/>
</g>
</svg>
